build/img/icons/instagram-icon.svg

<svg width="40" height="40" viewBox="0 0 40 40" fill="none" xmlns="http://www.w3.org/2000/svg">
<path d="M20.0455 0H19.9545C8.93392 0 0 8.93392 0 19.9545V20.0455C0 31.0661 8.93392 40 19.9545 40H20.0455C31.0661 40 40 31.0661 40 20.0455V19.9545C40 8.93392 31.0661 0 20.0455 0Z" fill="#88AB8E"/>
<path d="M26.1877 8.13672H13.8105C10.3911 8.13672 7.60938 10.9185 7.60938 14.3379V25.6612C7.60938 29.0806 10.3911 31.8623 13.8105 31.8623H26.1877C29.6071 31.8623 32.3888 29.0806 32.3888 25.6612V14.3379C32.3888 10.9185 29.6071 8.13672 26.1877 8.13672ZM9.79695 14.3379C9.79695 12.1251 11.5977 10.3243 13.8105 10.3243H26.1877C28.4005 10.3243 30.2013 12.1251 30.2013 14.3379V25.6612C30.2013 27.874 28.4005 29.6748 26.1877 29.6748H13.8105C11.5977 29.6748 9.79695 27.874 9.79695 25.6612V14.3379Z" fill="#EEE7DA"/>
<path d="M19.9986 25.7658C23.1784 25.7658 25.7667 23.1788 25.7667 19.9976C25.7667 16.8165 23.1798 14.2295 19.9986 14.2295C16.8174 14.2295 14.2305 16.8165 14.2305 19.9976C14.2305 23.1788 16.8174 25.7658 19.9986 25.7658ZM19.9986 16.4185C21.9732 16.4185 23.5792 18.0245 23.5792 19.999C23.5792 21.9736 21.9732 23.5796 19.9986 23.5796C18.024 23.5796 16.418 21.9736 16.418 19.999C16.418 18.0245 18.024 16.4185 19.9986 16.4185Z" fill="#EEE7DA"/>
<path d="M26.3002 15.1629C27.1565 15.1629 27.8544 14.4662 27.8544 13.6083C27.8544 12.7504 27.1579 12.0537 26.3002 12.0537C25.4426 12.0537 24.7461 12.7504 24.7461 13.6083C24.7461 14.4662 25.4426 15.1629 26.3002 15.1629Z" fill="#EEE7DA"/>
</svg>

<svg width="40" height="40" fill="none" xmlns="http://www.w3.org/2000/svg"><path d="M20.046 0h-.091C8.933 0 0 8.934 0 19.954v.091C0 31.067 8.934 40 19.954 40h.091C31.067 40 40 31.066 40 20.046v-.091C40 8.933 31.066 0 20.046 0Z" fill="#88AB8E"/><path d="M26.188 8.137H13.81a6.208 6.208 0 0 0-6.202 6.2v11.324a6.208 6.208 0 0 0 6.201 6.201h12.378a6.208 6.208 0 0 0 6.2-6.2V14.337a6.208 6.208 0 0 0-6.2-6.201Zm-16.391 6.2c0-2.212 1.8-4.013 4.013-4.013h12.378a4.018 4.018 0 0 1 4.013 4.014V25.66c0 2.213-1.8 4.014-4.013 4.014H13.81a4.018 4.018 0 0 1-4.014-4.014V14.338Z" fill="#EEE7DA"/><path d="M19.999 25.766a5.775 5.775 0 0 0 5.768-5.768 5.774 5.774 0 0 0-5.768-5.769 5.774 5.774 0 0 0-5.768 5.769 5.774 5.774 0 0 0 5.768 5.768Zm0-9.347a3.584 3.584 0 0 1 3.58 3.58 3.584 3.584 0 0 1-3.58 3.58A3.584 3.584 0 0 1 16.418 20a3.584 3.584 0 0 1 3.58-3.58Zm6.301-1.256a1.555 1.555 0 1 0-.002-3.108 1.555 1.555 0 0 0 .002 3.108Z" fill="#EEE7DA"/></svg>
